src/apps/symbolic/weather-app-symbolic.svg

<svg width="16" height="16" version="1.1" xmlns="http://www.w3.org/2000/svg">
 <path d="m11.377 5.745c-1.351 1e-3 -2.483 0.83-3.06 1.989l0.058-5e-3c-0.026 0-0.046 0.017-0.072 0.02-0.013 0.026-0.043 0.039-0.056 0.066l0.028-0.059c-1.28 0.149-2.275 1.257-2.275 2.601 0 1.444 1.137 2.643 2.552 2.643h5.462c1.102 0 1.986-0.935 1.986-2.052 0-0.807-0.481-1.476-1.152-1.807l5e-3 0.056v8e-3c-1e-3 -0.026-0.016-0.048-0.018-0.074-0.03-0.014-0.044-0.049-0.074-0.062l0.066 0.03c-0.14-1.856-1.607-3.35-3.447-3.352h0.02l-0.012-1e-3zm0 1.178h6e-3c1.228 4e-3 2.232 1.013 2.292 2.334v2e-3l0.042 0.647 0.58 0.245a0.84 0.84 0 0 1 0.524 0.797v2e-3c5e-3 0.504-0.37 0.873-0.806 0.873h-5.462c-0.749 0-1.375-0.633-1.375-1.466 0-0.794 0.58-1.404 1.282-1.455l0.597-0.043 0.26-0.554c0.387-0.834 1.153-1.382 2.06-1.383z" fill="#363636"/>
 <path d="m6.17 1.17-1.057 1.83h-2.113v2.113l-1.83 1.057 1.057 1.83-1.057 1.83 1.83 1.057v2.113h2.113l1.057 1.83 1.83-1.057 1.83 1.057 1.057-1.83h2.113v-1.105c-1.09 0.053-2.204 9e-3 -3.303 0.013-0.667-0.069-1.446 0.154-2.008-0.32-0.935-0.667-0.705-2.387 0.446-2.676 0.292-0.138 0.729-0.014 0.922-0.258 0.364-0.884 1.118-1.787 2.156-1.775 0.243 0 0.491-0.01 0.73 0.045 1.19 0.294 1.878 1.55 1.836 2.719-0.12 0.365 0.436 0.223 0.47 0.51-0.01 0.012-0.024 0.02-0.034 0.033l0.615-0.356-1.057-1.83 1.057-1.83-1.83-1.057v-2.113h-2.113l-1.057-1.83-1.83 1.057z" fill="#363636" opacity=".5"/>
</svg>

<svg xmlns="http://www.w3.org/2000/svg" width="16" height="16">
    <path fill="#050505" fill-opacity=".7" d="M11.377 5.745c-1.351.001-2.483.83-3.06 1.989l.058-.005c-.026 0-.046.017-.072.02-.013.026-.043.039-.056.066l.028-.059C6.995 7.905 6 9.013 6 10.357 6 11.801 7.137 13 8.552 13h5.462C15.116 13 16 12.065 16 10.948c0-.807-.481-1.476-1.152-1.807l.005.056v.008c-.001-.026-.016-.048-.018-.074-.03-.014-.044-.049-.074-.062l.066.03c-.14-1.856-1.607-3.35-3.447-3.352h.02l-.012-.001zm0 1.178h.006c1.228.004 2.232 1.013 2.292 2.334v.002l.042.647.58.245a.84.84 0 0 1 .524.797v.002c.005.504-.37.873-.806.873H8.553c-.749 0-1.375-.633-1.375-1.466 0-.794.58-1.404 1.282-1.455l.597-.043.26-.554c.387-.834 1.153-1.382 2.06-1.383z"/>
    <path fill="#050505" d="M6.17 1.17 5.113 3H3v2.113L1.17 6.17 2.227 8 1.17 9.83 3 10.887V13h2.113l1.057 1.83L8 13.773l1.83 1.057L10.887 13H13v-1.105c-1.09.053-2.204.009-3.303.013-.667-.069-1.446.154-2.008-.32-.935-.667-.705-2.387.446-2.676.292-.138.729-.014.922-.258.364-.884 1.118-1.787 2.156-1.775.243 0 .491-.01.73.045 1.19.294 1.878 1.55 1.836 2.719-.12.365.436.223.47.51-.01.012-.024.02-.034.033l.615-.356L13.773 8l1.057-1.83L13 5.113V3h-2.113L9.83 1.17 8 2.227z" opacity=".5"/>
</svg>
